assets/Fountain/Flat/fountain_flat.svg

<svg width="32" height="32" viewBox="0 0 32 32" fill="none" xmlns="http://www.w3.org/2000/svg">
<path d="M4.93 15.9885H27.07C27.58 15.9885 28 16.3685 28 16.8285V16.8985V16.9785V16.9985C27.94 21.3985 23.97 24.9885 19.11 24.9885H18.99V28.0085H19.9C20.5 28.0085 20.98 28.4985 20.97 29.0885V30.0085H11V29.0885C11 28.4985 11.49 28.0085 12.08 28.0085H12.99V24.9885H12.89C8.03 24.9885 4.05 21.3985 4 16.9985V16.9785V16.9085V16.8385C4 16.3685 4.42 15.9885 4.93 15.9885Z" fill="#B4ACBC"/>
<path d="M19 4.99854C17.8 4.99854 16.73 5.53692 16 6.37441C15.27 5.53692 14.2 4.99854 13 4.99854C10.79 4.99854 9 6.78318 9 8.98657V10.0135V11.0205H9.01C9.04 12.0972 9.92 12.9547 11 12.9547C12.08 12.9547 12.96 12.0972 12.99 11.0205V10.0135C12.99 9.45517 13.44 9.00651 14 9.00651C14.44 9.00651 14.8 9.28567 14.94 9.67451L15.2 14.0015C15.2 14.5499 15.55 14.9985 15.99 14.9985C16.43 14.9985 16.78 14.5499 16.78 14.0015L17.04 9.68448C17.18 9.29564 17.55 9.01648 17.99 9.01648C18.55 9.01648 19 9.46514 19 10.0235V11.0304H19.01C19.04 12.1072 19.92 12.9646 21 12.9646C22.08 12.9646 22.96 12.1072 22.99 11.0304H23V10.0135V8.98657C23 6.78318 21.21 4.99854 19 4.99854ZM26 6.99854C26.5523 6.99854 27 6.55082 27 5.99854C27 5.44625 26.5523 4.99854 26 4.99854C25.4477 4.99854 25 5.44625 25 5.99854C25 6.55082 25.4477 6.99854 26 6.99854ZM7 13.9985C7 14.5508 6.55228 14.9985 6 14.9985C5.44772 14.9985 5 14.5508 5 13.9985C5 13.4462 5.44772 12.9985 6 12.9985C6.55228 12.9985 7 13.4462 7 13.9985Z" fill="#83CBFF"/>
</svg>

<svg xmlns="http://www.w3.org/2000/svg" width="32" height="32" fill="none"><path fill="#B4ACBC" d="M4.93 15.989h22.14c.51 0 .93.38.93.84v.17c-.06 4.4-4.03 7.99-8.89 7.99h-.12v3.02h.91c.6 0 1.08.49 1.07 1.08v.92H11v-.92c0-.59.49-1.08 1.08-1.08h.91v-3.02h-.1c-4.86 0-8.84-3.59-8.89-7.99V16.838c0-.47.42-.85.93-.85Z"/><path fill="#83CBFF" d="M19 4.999c-1.2 0-2.27.538-3 1.375A3.972 3.972 0 0 0 13 5c-2.21 0-4 1.784-4 3.988v2.034h.01A1.989 1.989 0 0 0 11 12.954c1.08 0 1.96-.858 1.99-1.934v-1.008c0-.558.45-1.006 1.01-1.006.44 0 .8.279.94.668L15.2 14c0 .549.35.998.79.998.44 0 .79-.45.79-.998l.26-4.317c.14-.388.51-.668.95-.668.56 0 1.01.45 1.01 1.008v1.006h.01A1.989 1.989 0 0 0 21 12.965c1.08 0 1.96-.858 1.99-1.935H23V8.987a3.993 3.993 0 0 0-4-3.988Zm7 2a1 1 0 1 0 0-2 1 1 0 0 0 0 2Zm-19 7a1 1 0 1 1-2 0 1 1 0 0 1 2 0Z"/></svg>
